X: 0823
M: 4/4
L: 1/8
K: D
|:\
edcd eAA2 | edcd eaa2 |\
edcd edcA | GA cd edd2 ||
edcd edcd | edcd eaa2 |\
gefd edcA | GA cd edd2 |]

